assets/images/clients/LEGIS.svg

<svg width="300" height="120" viewBox="0 0 300 120" fill="none" xmlns="http://www.w3.org/2000/svg">
<path d="M175.391 72.8919L185.275 63.0559V71.7013H189.253V53.9024L179.399 63.7991V55.4874H175.406L175.391 72.8919ZM166.93 59.1958H172.316L173.198 55.4874H162.891V71.7013H166.93V59.1958ZM151.454 59.1655H157.519L158.378 55.4874H147.461V71.7013H158.408V67.8336H151.454V65.1869H156.675L157.549 61.4861H151.454V59.1655ZM200.698 55.1992C202.265 55.1992 203.742 55.6315 205 56.3746L203.086 59.6888C202.401 59.2565 201.572 59.0214 200.713 59.0214C198.174 59.0214 196.132 61.0614 196.132 63.5868C196.132 66.1046 198.181 68.1521 200.713 68.1521C201.587 68.1521 202.401 67.9095 203.086 67.4848L205 70.7988C203.749 71.542 202.265 71.9743 200.698 71.9743C196.049 71.9743 192.297 68.2204 192.297 63.5943C192.305 58.9607 196.057 55.1992 200.698 55.1992ZM135.753 59.2565H139.106V71.7013H143.099V55.495H132.076L131.292 65.4447C131.247 65.8467 131.142 67.7502 130.855 68.1218C130.69 68.3417 130.456 68.501 130.177 68.5692C129.989 68.6147 129.793 68.5995 129.605 68.5995H129.334L129.115 71.2539C129.627 71.5117 130.192 71.6786 130.803 71.7013H131.436H131.262L131.315 71.6937H131.36C132.581 71.6254 133.658 71.0187 134.366 70.1087C135.18 69.047 135.203 68.0081 135.301 66.6809L135.753 59.2565ZM95 71.5875H123.291L109.149 47.1074L95 71.5875Z" fill="#949494"/>
</svg>

<svg width="300" height="120" viewBox="0 0 300 120" fill="none" xmlns="http://www.w3.org/2000/svg"><path d="m175.391 72.892 9.884-9.836V71.7h3.978V53.902l-9.854 9.897v-8.312h-3.993l-.015 17.405Zm-8.461-13.696h5.386l.882-3.709h-10.307v16.214h4.039V59.196Zm-15.476-.03h6.065l.859-3.679h-10.917v16.214h10.947v-3.867h-6.954v-2.647h5.221l.874-3.7h-6.095v-2.322Zm49.244-3.967c1.567 0 3.044.433 4.302 1.176l-1.914 3.314a4.458 4.458 0 0 0-2.373-.668 4.565 4.565 0 0 0-4.581 4.566 4.574 4.574 0 0 0 4.581 4.565c.874 0 1.688-.243 2.373-.667L205 70.799a8.432 8.432 0 0 1-4.302 1.175c-4.649 0-8.401-3.754-8.401-8.38.008-4.633 3.76-8.395 8.401-8.395Zm-64.945 4.058h3.353V71.7h3.993V55.495h-11.023l-.784 9.95c-.045.402-.15 2.305-.437 2.677-.165.22-.399.379-.678.447-.188.046-.384.03-.572.03h-.271l-.219 2.655a4.07 4.07 0 0 0 1.688.447h.633-.174l.053-.007h.045a4.097 4.097 0 0 0 3.006-1.585c.814-1.062.837-2.1.935-3.428l.452-7.424ZM95 71.587h28.291l-14.142-24.48L95 71.587Z" fill="#949494"/></svg>
